static/img/social_icons/Instagram.svg

<svg width="49" height="49" viewBox="0 0 49 49" fill="none" xmlns="http://www.w3.org/2000/svg">
<circle cx="24.5" cy="24.2379" r="23.5" stroke="#DC296C"/>
<path d="M24.4974 21.0366C22.7346 21.0366 21.2961 22.4751 21.2961 24.2379C21.2961 26.0007 22.7346 27.4393 24.4974 27.4393C26.2601 27.4393 27.6987 26.0007 27.6987 24.2379C27.6987 22.4751 26.2601 21.0366 24.4974 21.0366ZM34.0989 24.2379C34.0989 22.9122 34.1109 21.5986 34.0365 20.2753C33.962 18.7382 33.6114 17.3741 32.4874 16.2501C31.3611 15.1238 29.9994 14.7755 28.4624 14.7011C27.1367 14.6266 25.8231 14.6387 24.4998 14.6387C23.1741 14.6387 21.8605 14.6266 20.5372 14.7011C19.0002 14.7755 17.6361 15.1262 16.5121 16.2501C15.3858 17.3765 15.0376 18.7382 14.9631 20.2753C14.8887 21.601 14.9007 22.9146 14.9007 24.2379C14.9007 25.5612 14.8887 26.8773 14.9631 28.2006C15.0376 29.7377 15.3882 31.1018 16.5121 32.2257C17.6385 33.3521 19.0002 33.7003 20.5372 33.7748C21.8629 33.8492 23.1765 33.8372 24.4998 33.8372C25.8255 33.8372 27.1391 33.8492 28.4624 33.7748C29.9994 33.7003 31.3635 33.3497 32.4874 32.2257C33.6138 31.0994 33.962 29.7377 34.0365 28.2006C34.1133 26.8773 34.0989 25.5636 34.0989 24.2379ZM24.4974 29.1637C21.7716 29.1637 19.5717 26.9638 19.5717 24.2379C19.5717 21.5121 21.7716 19.3122 24.4974 19.3122C27.2232 19.3122 29.423 21.5121 29.423 24.2379C29.423 26.9638 27.2232 29.1637 24.4974 29.1637ZM29.6248 20.2609C28.9883 20.2609 28.4744 19.7469 28.4744 19.1105C28.4744 18.474 28.9883 17.9601 29.6248 17.9601C30.2612 17.9601 30.7751 18.474 30.7751 19.1105C30.7753 19.2616 30.7457 19.4113 30.6879 19.5509C30.6302 19.6906 30.5455 19.8175 30.4386 19.9243C30.3317 20.0312 30.2049 20.1159 30.0652 20.1737C29.9255 20.2314 29.7759 20.261 29.6248 20.2609Z" fill="white"/>
</svg>

<svg width="49" height="49" fill="none" xmlns="http://www.w3.org/2000/svg"><circle cx="24.5" cy="24.238" r="23.5" stroke="#DC296C"/><path d="M24.497 21.037a3.208 3.208 0 0 0-3.2 3.2 3.208 3.208 0 0 0 3.2 3.202 3.208 3.208 0 0 0 3.202-3.201 3.208 3.208 0 0 0-3.202-3.201Zm9.602 3.2c0-1.325.012-2.638-.063-3.962-.074-1.537-.425-2.9-1.549-4.025-1.126-1.126-2.488-1.475-4.025-1.549-1.325-.074-2.639-.062-3.962-.062-1.326 0-2.64-.012-3.963.062-1.537.074-2.9.425-4.025 1.55-1.126 1.125-1.474 2.487-1.549 4.024-.074 1.326-.062 2.64-.062 3.963s-.012 2.64.062 3.963c.075 1.537.425 2.9 1.55 4.025 1.125 1.126 2.487 1.474 4.024 1.549 1.326.074 2.64.062 3.963.062 1.326 0 2.64.012 3.962-.062 1.537-.075 2.901-.425 4.025-1.55 1.127-1.126 1.475-2.487 1.55-4.024.076-1.324.062-2.637.062-3.963Zm-9.602 4.927a4.919 4.919 0 0 1-4.925-4.926c0-2.726 2.2-4.926 4.925-4.926 2.726 0 4.926 2.2 4.926 4.926s-2.2 4.926-4.926 4.926Zm5.128-8.903c-.637 0-1.15-.514-1.15-1.15 0-.637.513-1.15 1.15-1.15a1.149 1.149 0 0 1 .814 1.963 1.15 1.15 0 0 1-.814.337Z" fill="#fff"/></svg>
